X:1
T:181 - Bênção
T:Letra: João Gomes da Rocha (1861-1947)
T:Música: Lowell Mason (1792-1872)
M:4/4
L:1/8
Q:1/4=90
K:Eb
V:1
B2 | "Eb"B2 GE "Fm"F2 "Bb"ED | "Eb"E4z2A2 | ("Bb"F2B4) "F7"=A2 | "Bb"B4 zB "Bb7"cd | "Eb"eG (AB) "Ab"c2 "Eb"B2 | "Fm"A4 HA2 "Bb"B2 | "Eb"G4 "Bb7"F4 | "Eb"E6 "Fm"F2 | "Eb/Bb"E4 "Bb"D4 | "Eb"E4z2 |] 
w: A gra-ça de nos-so Se-nhor, Eoa-mor_ de Deus, Ea co-mu-nhão doEs-pí_ri-to San-to, Co-nos-co se-jaA-mém! A-mém!
W: 
W:
W: A graça de nosso Senhor,
W: E o amor de Deus,
W: E a comunhão do Espírito Santo,
W: Conosco seja Amém! Amém!
W:         
W: 				         
W:           





